X:1
T:Rambling Irishman
M:4/4
L:1/8
K:G
G-E| D2D-E G2 G2|A-GA-B d2e-B| d2B-AG-ED-E| G2-G-DE-D| B,2| D2 DE G2 G2|\
A-GA-B d2 eB| d2B-AG-ED-E| G4 G2|G-B| d2 d2e-d B2| d2 dB A2G-B| d2 d2e-d B2|\
 d2-d-B A2| GB| d2 d2e-d B2| d2d-B A3 G| A2A-Bd-BA-B| G2-G-DE-D| B,2|\
 D2 DE G2 G2|A-G AB d2e-B| d2 BAG-E DE| G4 G2||
